X: 102
T:The East Is Red
T:Northern Shensi Folk Song
G:song
S:Revolutionary Songs of China
M:2/4
L:1/8
Q:1/4=100
K:C
% major/mixolydian hexatonic
c2 cd|G4   |F2 FD|G4   |
c2 cc|df dc|f2 FD|G4   |
c2 G2|FF ED|C2 c2|G2 AG|
F2 FD|GA GF|GF ED|C4-  |C2|]

One of the best-known tunes from anywhere in this mode is the English
nursery rhyme "This Old Man", also known as Barney the Purple Dinosaur's
song "I Love You" from US children's TV (and used on prisoners by
American torturers in Iraq and Afghanistan):

